X: 26673
T: Midnight Rambler, The
R: strathspey
M: 4/4
K: Gmajor
|:D>GB>G B>c B2|D>GB>G A2 (3GFE|
D>G B2 B>G (3ABc|d>ed>B (3ABA G2:|
g>fe>f g>e d2|g>fe>g d>B A2|
g2 (3def g>ed>G|d>ed>B A2 G2|
g>fe>f g>ed>G|g>e (3def g2 a2|
b>ga>f g>d (3efg|d>e (3dBG (3ABA (3GFE||

